X:1
T:Title
%%score { ( 1 3 ) | 2 }
L:1/8
M:4/4
K:Db
V:1 treble nm="Grand Piano"
V:3 treble 
V:2 bass 
V:1
 z4 z2[Q:1/4=100] [FA]>[GB] | [FA]2 [Fd]2 [Gc]2 [GB]>[Gc] | [GB]2 [FA]2 [DF]2 [FA]>[GB] | %3
 [FA]2 [EG]2 [CE]2 [CA]2 | [DF]6 [FA]>[GB] | [FA]2 [Fd]2 [Gc]2 [GB]>[Gc] | [GB]2 [FA]2 F2 F>F | %7
 E2 d2 c3 B |[M:3/4] [CA]6 |[M:1/4] A>B |[M:4/4] z2 [Gc]4 z2 | z2 [Fd]4 z2 | %12
 [GB]3 [GB] [=Ge]2 [Gd][Gd] | c6 A>B | z2 [Fd]4 z2 | z2 [=Ge]4 z2 | c3 A B2 [Gc]>[Gc] | %17
[M:3/4] [Fd]6 |] %18
V:2
 z4 z2 [D,D]>[D,D] | [D,D]2 [D,A,]2 [E,A,]2 [A,C]>[A,E] | [D,D]2 [D,D]2 [D,A,]2 [D,D]>[D,D] | %3
 [A,D]2 [A,C]2 [A,,A,]2 [A,,A,]2 | [D,A,]6 [D,D]>[D,D] | [D,D]2 [D,A,]2 [E,A,]2 [A,C]>[A,E] | %6
 [D,D]2 [D,D]2 [D,A,D]2 [D,A,D]>[D,A,D] | [E,A,C]2 [E,=G,E]2 [E,A,E]3 [E,D] |[M:3/4] [A,,E,]6 | %9
[M:1/4][K:treble] G>G |[M:4/4] A,2 A,2 A,A, G>G | D,2 [D,A,]2 D,D,[D,A,][F,D] | %12
 [G,D]3 [G,B,] [E,B,]2 [E,E][E,E] | [A,EA]6 G>G | D,2 [D,A,]2 D,D,[K:treble] G>G | %15
 E,2 [E,B,]2 E,E,[E,B,][E,E] | [A,EA]3 [A,EG] [A,CG]2[K:bass] [A,,A,]>[A,,A,] |[M:3/4] [D,A,]6 |] %18
V:3
 x8 | x8 | x8 | x8 | x8 | x8 | x8 | x8 |[M:3/4] x6 |[M:1/4] x2 |[M:4/4] [CGA]2 E2 EE A>B | %11
 [DFA]2 z2 A,A,[Fd][Ac] | x8 | x8 | [DFA]2 z2 A,A, B>c | [E=GB]2 z2 B,B,[Gd][Gd] | x8 | %17
[M:3/4] x6 |] %18

